assets/img/topic/es6.svg

<?xml version="1.0" encoding="UTF-8"?>
<svg width="34px" height="34px" viewBox="0 0 34 34" version="1.1" xmlns="http://www.w3.org/2000/svg" xmlns:xlink="http://www.w3.org/1999/xlink">
    <!-- Generator: Sketch 51.3 (57544) - http://www.bohemiancoding.com/sketch -->
    <title>javascript</title>
    <desc>Created with Sketch.</desc>
    <defs></defs>
    <g id="assets" stroke="none" stroke-width="1" fill="none" fill-rule="evenodd">
        <g transform="translate(-1204.000000, -406.000000)" id="javascript">
            <g transform="translate(1204.000000, 406.000000)">
                <path d="M3,0 L31,0 C32.6568542,-3.04359188e-16 34,1.34314575 34,3 L34,31 C34,32.6568542 32.6568542,34 31,34 L3,34 C1.34314575,34 2.02906125e-16,32.6568542 0,31 L0,3 C-2.02906125e-16,1.34314575 1.34314575,3.04359188e-16 3,0 Z" id="Shape" fill="#F77A1E" fill-rule="nonzero"></path>
                <path d="M4,30.384 L4,18.144 L12.1,18.144 L12.1,20.358 L6.52,20.358 L6.52,24.246 L11.434,24.246 L11.434,26.406 L6.52,26.406 L6.52,28.17 L12.352,28.17 L12.352,30.384 L4,30.384 Z M17.59,30.546 C15.25,30.546 13.738,29.43 13,27.972 L15.052,26.784 C15.592,27.666 16.294,28.314 17.536,28.314 C18.58,28.314 19.246,27.792 19.246,27.072 C19.246,26.208 18.562,25.902 17.41,25.398 L16.78,25.128 C14.962,24.354 13.756,23.382 13.756,21.33 C13.756,19.44 15.196,18 17.446,18 C19.048,18 20.2,18.558 21.028,20.016 L19.066,21.276 C18.634,20.502 18.166,20.196 17.446,20.196 C16.708,20.196 16.24,20.664 16.24,21.276 C16.24,22.032 16.708,22.338 17.788,22.806 L18.418,23.076 C20.56,23.994 21.766,24.93 21.766,27.036 C21.766,29.304 19.984,30.546 17.59,30.546 Z M26.5360001,30.546 C24.2680001,30.546 22.3600001,29.034 22.3600001,26.802 C22.3600001,25.452 22.9180001,24.372 23.8720001,23.058 L26.5000001,19.422 L29.2360001,19.422 L27.0220001,22.464 C26.6260001,23.004 25.8880001,23.562 25.8880001,23.562 C26.2840001,23.364 26.6980001,23.256 27.2380001,23.256 C29.1640001,23.256 30.6760001,24.588 30.6760001,26.748 C30.6760001,29.106 28.8220001,30.546 26.5360001,30.546 Z M26.5180001,28.404 C27.5800001,28.404 28.1920001,27.612 28.1920001,26.748 C28.1920001,25.884 27.5800001,25.092 26.5180001,25.092 C25.4560001,25.092 24.8440001,25.884 24.8440001,26.748 C24.8440001,27.612 25.4560001,28.404 26.5180001,28.404 Z" id="ES6" fill="#000000"></path>
            </g>
        </g>
    </g>
</svg>

<svg height="34" viewBox="0 0 34 34" width="34" xmlns="http://www.w3.org/2000/svg"><g fill="none" fill-rule="evenodd"><path d="m3 0h28c1.6568542 0 3 1.34314575 3 3v28c0 1.6568542-1.3431458 3-3 3h-28c-1.65685425 0-3-1.3431458-3-3v-28c0-1.65685425 1.34314575-3 3-3z" fill="#f77a1e" fill-rule="nonzero"/><path d="m4 30.384v-12.24h8.1v2.214h-5.58v3.888h4.914v2.16h-4.914v1.764h5.832v2.214zm13.59.162c-2.34 0-3.852-1.116-4.59-2.574l2.052-1.188c.54.882 1.242 1.53 2.484 1.53 1.044 0 1.71-.522 1.71-1.242 0-.864-.684-1.17-1.836-1.674l-.63-.27c-1.818-.774-3.024-1.746-3.024-3.798 0-1.89 1.44-3.33 3.69-3.33 1.602 0 2.754.558 3.582 2.016l-1.962 1.26c-.432-.774-.9-1.08-1.62-1.08-.738 0-1.206.468-1.206 1.08 0 .756.468 1.062 1.548 1.53l.63.27c2.142.918 3.348 1.854 3.348 3.96 0 2.268-1.782 3.51-4.176 3.51zm8.9460001 0c-2.268 0-4.176-1.512-4.176-3.744 0-1.35.558-2.43 1.512-3.744l2.628-3.636h2.736l-2.214 3.042c-.396.54-1.134 1.098-1.134 1.098.396-.198.81-.306 1.35-.306 1.926 0 3.438 1.332 3.438 3.492 0 2.358-1.854 3.798-4.14 3.798zm-.018-2.142c1.062 0 1.674-.792 1.674-1.656s-.612-1.656-1.674-1.656-1.674.792-1.674 1.656.612 1.656 1.674 1.656z" fill="#000"/></g></svg>
